fs/clipboard_task_add_20_filled.svg

<svg viewBox="0 0 20 20" fill="none" xmlns="http://www.w3.org/2000/svg" height="1em" width="1em">
  <path d="M6.5 2C5.84689 2 5.29127 2.4174 5.08535 3H3.5C2.67157 3 2 3.67157 2 4.5V16.5C2 17.3284 2.67157 18 3.5 18H10.2572C9.47182 17.0491 9 15.8296 9 14.5C9 11.631 11.1967 9.27504 14 9.02242V4.5C14 3.67157 13.3284 3 12.5 3H10.9146C10.7087 2.4174 10.1531 2 9.5 2H6.5ZM6 3.5C6 3.22386 6.22386 3 6.5 3H9.5C9.77614 3 10 3.22386 10 3.5C10 3.77614 9.77614 4 9.5 4H6.5C6.22386 4 6 3.77614 6 3.5ZM10.8536 9.85355L7.35355 13.3536C7.15829 13.5488 6.84171 13.5488 6.64645 13.3536L5.14645 11.8536C4.95118 11.6583 4.95118 11.3417 5.14645 11.1464C5.34171 10.9512 5.65829 10.9512 5.85355 11.1464L7 12.2929L10.1464 9.14645C10.3417 8.95118 10.6583 8.95118 10.8536 9.14645C11.0488 9.34171 11.0488 9.65829 10.8536 9.85355ZM19 14.5C19 16.9853 16.9853 19 14.5 19C12.0147 19 10 16.9853 10 14.5C10 12.0147 12.0147 10 14.5 10C16.9853 10 19 12.0147 19 14.5ZM15 12.5C15 12.2239 14.7761 12 14.5 12C14.2239 12 14 12.2239 14 12.5V14H12.5C12.2239 14 12 14.2239 12 14.5C12 14.7761 12.2239 15 12.5 15H14V16.5C14 16.7761 14.2239 17 14.5 17C14.7761 17 15 16.7761 15 16.5V15H16.5C16.7761 15 17 14.7761 17 14.5C17 14.2239 16.7761 14 16.5 14H15V12.5Z" fill="#212121"/>
</svg>

<svg viewBox="0 0 20 20" fill="none" xmlns="http://www.w3.org/2000/svg" height="1em" width="1em">
  <path d="M6.5 2a1.5 1.5 0 0 0-1.415 1H3.5A1.5 1.5 0 0 0 2 4.5v12A1.5 1.5 0 0 0 3.5 18h6.757A5.5 5.5 0 0 1 14 9.022V4.5A1.5 1.5 0 0 0 12.5 3h-1.585A1.5 1.5 0 0 0 9.5 2h-3ZM6 3.5a.5.5 0 0 1 .5-.5h3a.5.5 0 0 1 0 1h-3a.5.5 0 0 1-.5-.5Zm4.854 6.354-3.5 3.5a.5.5 0 0 1-.708 0l-1.5-1.5a.5.5 0 0 1 .708-.708L7 12.293l3.146-3.147a.5.5 0 0 1 .708.708ZM19 14.5a4.5 4.5 0 1 1-9 0 4.5 4.5 0 0 1 9 0Zm-4-2a.5.5 0 0 0-1 0V14h-1.5a.5.5 0 0 0 0 1H14v1.5a.5.5 0 0 0 1 0V15h1.5a.5.5 0 0 0 0-1H15v-1.5Z" fill="#212121"/>
</svg>
